packages/tokens/icons/oneToOnePersonalization/size16Px.svg

<svg viewBox="0 0 16 16" fill="none" xmlns="http://www.w3.org/2000/svg" width="1em" height="1em"><mask id="path-1-inside-1_1748_7916" fill="currentColor"><path fill-rule="evenodd" clip-rule="evenodd" d="M9 6.95834C9 7.3153 8.80335 7.63765 8.52319 7.85887C7.59545 8.5914 7 9.72616 7 11C7 13.2091 8.79086 15 11 15C13.2091 15 15 13.2091 15 11C15 9.72616 14.4046 8.5914 13.4768 7.85887C13.1967 7.63765 13 7.3153 13 6.95834V3C13 1.89543 12.1046 1 11 1C9.89543 1 9 1.89543 9 3V6.95834Z"/></mask><path d="M8.52319 7.85887L7.90349 7.07403L8.52319 7.85887ZM8 11C8 10.0451 8.44499 9.19476 9.14289 8.6437L7.90349 7.07403C6.74591 7.98804 6 9.40721 6 11H8ZM11 14C9.34315 14 8 12.6569 8 11H6C6 13.7614 8.23858 16 11 16V14ZM14 11C14 12.6569 12.6569 14 11 14V16C13.7614 16 16 13.7614 16 11H14ZM12.8571 8.64371C13.555 9.19476 14 10.0451 14 11H16C16 9.40721 15.2541 7.98804 14.0965 7.07403L12.8571 8.64371ZM14 6.95834V3H12V6.95834H14ZM14 3C14 1.34315 12.6569 0 11 0V2C11.5523 2 12 2.44772 12 3H14ZM11 0C9.34315 0 8 1.34315 8 3H10C10 2.44772 10.4477 2 11 2V0ZM8 3V6.95834H10V3H8ZM14.0965 7.07403C14.0504 7.03759 14.0228 7.00158 14.0093 6.97711C13.997 6.95483 14 6.94955 14 6.95834H12C12 7.69444 12.4007 8.28332 12.8571 8.64371L14.0965 7.07403ZM9.14289 8.6437C9.59931 8.28332 10 7.69444 10 6.95834H8C8 6.94955 8.00297 6.95483 7.9907 6.97711C7.97723 7.00158 7.94963 7.03759 7.90349 7.07403L9.14289 8.6437Z" fill="currentColor" mask="url(#path-1-inside-1_1748_7916)"/><circle cx="11" cy="11" r="1.5" stroke="currentColor"/><path d="M11 9.5L11 6L11 4.5" stroke="currentColor" stroke-linecap="round"/><path d="M2.168 5.592C2.168 5.27467 2.20533 4.96667 2.28 4.668C2.35933 4.36933 2.47833 4.10333 2.637 3.87C2.79567 3.63667 2.99867 3.45 3.246 3.31C3.49333 3.17 3.785 3.1 4.121 3.1C4.457 3.1 4.74633 3.17 4.989 3.31C5.23633 3.45 5.43933 3.63667 5.598 3.87C5.75667 4.10333 5.87333 4.36933 5.948 4.668C6.02733 4.96667 6.067 5.27467 6.067 5.592C6.067 5.90933 6.02733 6.21733 5.948 6.516C5.87333 6.81467 5.75667 7.08067 5.598 7.314C5.43933 7.54733 5.23633 7.734 4.989 7.874C4.74633 8.014 4.457 8.084 4.121 8.084C3.78033 8.084 3.48633 8.014 3.239 7.874C2.99633 7.734 2.79567 7.54733 2.637 7.314C2.47833 7.08067 2.35933 6.81467 2.28 6.516C2.20533 6.21733 2.168 5.90933 2.168 5.592ZM3.092 5.578C3.092 5.82067 3.113 6.047 3.155 6.257C3.197 6.46233 3.26 6.642 3.344 6.796C3.428 6.94533 3.53533 7.062 3.666 7.146C3.79667 7.23 3.94833 7.272 4.121 7.272C4.29833 7.272 4.45 7.23 4.576 7.146C4.70667 7.062 4.814 6.94533 4.898 6.796C4.982 6.642 5.04267 6.46233 5.08 6.257C5.122 6.047 5.143 5.82067 5.143 5.578C5.143 5.33067 5.122 5.10433 5.08 4.899C5.04267 4.689 4.982 4.50933 4.898 4.36C4.814 4.21067 4.70667 4.094 4.576 4.01C4.45 3.926 4.29833 3.884 4.121 3.884C3.94833 3.884 3.79667 3.926 3.666 4.01C3.53533 4.094 3.428 4.21067 3.344 4.36C3.26 4.50933 3.197 4.689 3.155 4.899C3.113 5.10433 3.092 5.33067 3.092 5.578Z" fill="currentColor"/><path d="M7.5 3C7.5 2.72386 7.27614 2.5 7 2.5C6.72386 2.5 6.5 2.72386 6.5 3C6.5 3.27614 6.72386 3.5 7 3.5C7.27614 3.5 7.5 3.27614 7.5 3Z" stroke="currentColor"/></svg>

<svg xmlns="http://www.w3.org/2000/svg" fill="none" viewBox="0 0 16 16" width="1em" height="1em"><mask id="iconsOneToOnePersonalizationSize16Px__a" fill="#fff"><path fill-rule="evenodd" d="M9 6.958c0 .357-.197.68-.477.9a4 4 0 1 0 4.954 0c-.28-.22-.477-.543-.477-.9V3a2 2 0 1 0-4 0v3.958Z" clip-rule="evenodd"/></mask><path fill="currentColor" d="m8.523 7.859-.62-.785.62.785ZM8 11c0-.955.445-1.805 1.143-2.356l-1.24-1.57A4.993 4.993 0 0 0 6 11h2Zm3 3a3 3 0 0 1-3-3H6a5 5 0 0 0 5 5v-2Zm3-3a3 3 0 0 1-3 3v2a5 5 0 0 0 5-5h-2Zm-1.143-2.356A2.993 2.993 0 0 1 14 11h2a4.993 4.993 0 0 0-1.903-3.926l-1.24 1.57ZM14 6.958V3h-2v3.958h2ZM14 3a3 3 0 0 0-3-3v2a1 1 0 0 1 1 1h2Zm-3-3a3 3 0 0 0-3 3h2a1 1 0 0 1 1-1V0ZM8 3v3.958h2V3H8Zm6.097 4.074a.341.341 0 0 1-.088-.097C13.997 6.955 14 6.95 14 6.958h-2c0 .736.4 1.325.857 1.686l1.24-1.57Zm-4.954 1.57c.456-.36.857-.95.857-1.686H8c0-.008.003-.003-.01.02a.34.34 0 0 1-.087.096l1.24 1.57Z" mask="url(#iconsOneToOnePersonalizationSize16Px__a)"/><circle cx="11" cy="11" r="1.5" stroke="currentColor"/><path stroke="currentColor" stroke-linecap="round" d="M11 9.5v-5"/><path fill="currentColor" d="M2.168 5.592c0-.317.037-.625.112-.924.08-.299.198-.565.357-.798.159-.233.362-.42.609-.56.247-.14.539-.21.875-.21a1.708 1.708 0 0 1 1.477.77c.159.233.275.5.35.798.08.299.119.607.119.924 0 .317-.04.625-.119.924a2.471 2.471 0 0 1-.35.798 1.708 1.708 0 0 1-1.477.77c-.34 0-.635-.07-.882-.21a1.818 1.818 0 0 1-.602-.56 2.588 2.588 0 0 1-.357-.798 3.795 3.795 0 0 1-.112-.924Zm.924-.014c0 .243.021.469.063.679.042.205.105.385.189.539.084.15.191.266.322.35a.82.82 0 0 0 .455.126.801.801 0 0 0 .455-.126c.13-.084.238-.2.322-.35.084-.154.145-.334.182-.539a3.46 3.46 0 0 0 .063-.679c0-.247-.021-.474-.063-.679a1.702 1.702 0 0 0-.182-.539.974.974 0 0 0-.322-.35.801.801 0 0 0-.455-.126.823.823 0 0 0-.455.126.974.974 0 0 0-.322.35c-.084.15-.147.329-.189.539a3.394 3.394 0 0 0-.063.679Z"/><path stroke="currentColor" d="M7.5 3a.5.5 0 1 0-1 0 .5.5 0 0 0 1 0Z"/></svg>
